X: 34
M:6/8
L:1/8
K:G
|:B2 e e2 d|fed e3|B2 e e2 f|g2 e fdB|1B2 ^c d2 B|edc d3|B2 ^c d2 e|
f2 e dBA:|2 B2 ^c d2 =c|B3/2c/2B/2A/2 G3|FEF d2 B|e2 B AFD||

